src/icons/svgs/16/code.svg

<svg width="16" height="16" viewBox="0 0 16 16" fill="none" xmlns="http://www.w3.org/2000/svg">
<path d="M13 1H3C1.89531 1 1 1.89562 1 3V13C1 14.1044 1.89531 15 3 15H13C14.1047 15 15 14.1044 15 13V3C15 1.89562 14.1031 1 13 1ZM6.75313 9.69375C7.06075 9.97109 7.08562 10.4447 6.80878 10.7534C6.65937 10.9156 6.45625 11 6.25 11C6.06465 11.0003 5.8858 10.9317 5.74813 10.8076L3.24813 8.55762C3.09031 8.41562 3 8.2125 3 8C3 7.7875 3.09034 7.585 3.24806 7.4425L5.74806 5.1925C6.05666 4.91613 6.53025 4.94153 6.80775 5.24816C7.08459 5.55675 7.05969 6.03034 6.75209 6.30784L4.87188 8L6.75313 9.69375V9.69375ZM12.7531 8.55625L10.2531 10.8062C10.1094 10.9094 9.92812 11 9.75 11C9.64488 11 9.54093 10.978 9.44488 10.9352C9.34884 10.8925 9.26285 10.83 9.1925 10.7519C8.91566 10.4433 8.94056 9.96975 9.24816 9.69225L11.1281 8L9.24719 6.3075C8.93956 6.03016 8.91469 5.55656 9.19153 5.24781C9.46887 4.94019 9.94309 4.91594 10.2512 5.19216L12.7512 7.44216C12.9094 7.58438 13 7.7875 13 8C13 8.2125 12.9094 8.41562 12.7531 8.55625Z" fill="black"/>
</svg>

<svg width="16" height="16" viewBox="0 0 16 16" xmlns="http://www.w3.org/2000/svg">
    <path d="M13 1H3a2 2 0 0 0-2 2v10a2 2 0 0 0 2 2h10a2 2 0 0 0 2-2V3c0-1.104-.897-2-2-2ZM6.753 9.694a.751.751 0 1 1-1.005 1.114l-2.5-2.25a.75.75 0 0 1 0-1.115l2.5-2.25a.751.751 0 0 1 1.004 1.115L4.872 8l1.881 1.694Zm6-1.138-2.5 2.25c-.144.103-.325.194-.503.194a.75.75 0 0 1-.502-1.308L11.128 8l-1.88-1.692a.751.751 0 0 1 1.003-1.116l2.5 2.25a.75.75 0 0 1 .002 1.114Z"/>
</svg>
